packages/swarm-icons/src/icons/solid/Ticket.svg

<svg xmlns="http://www.w3.org/2000/svg" width="18" height="18" viewBox="0 0 18 18">
  <path fill="#A2A2A2" d="M10.5,3.5 L16.5,3.5 L16.5,7.5 C15.5817695,7.5 15.1226543,8 15.1226543,9 C15.1226543,10 15.5817695,10.5 16.5,10.5 L16.5,14.5 L10.5,14.5 L1.5,14.5 L1.5,10.5 C2.4182305,10.5 2.87734575,10 2.87734575,9 C2.87734575,8 2.4182305,7.5 1.5,7.5 L1.5,3.5 L10.5,3.5 Z M5.5,6.5 L12.5,6.5 L12.5,11.5 L5.5,11.5 L5.5,6.5 Z M13.5,5.5 L4.5,5.5 L4.5,12.5 L13.5,12.5 L13.5,5.5 Z"/>
</svg>

<svg xmlns="http://www.w3.org/2000/svg" width="18" height="18"><path fill="#A2A2A2" d="M10.5 3.5h6v4c-.918 0-1.377.5-1.377 1.5s.459 1.5 1.377 1.5v4h-15v-4c.918 0 1.377-.5 1.377-1.5S2.418 7.5 1.5 7.5v-4h9zm-5 3h7v5h-7v-5zm8-1h-9v7h9v-7z"/></svg>
